X:040
L:1/16
M:2/4
K:G
((3FGA) | G2BG FAce | d2gf Bde=f | e2c((3c/2B/2c/2) d2B((3B/2^A/2B/2) | cA^GA EcBA |
(de) | Bdef gGBd | eDFA G2Bd | ecge dBgB | ((3ABc)BA GFED |

